X: 30719
T: Orion Belt, The
R: reel
M: 4/4
K: Gmajor
BAGA B3c|BAGA Bdd2|BAGA Bdef|gedB BAA2|
gedB G2GE|DEGA BAA2|BAGA Bdde|dBAB G3A:|
|:Bdef g2fg|a2ag fdde|f2dB BAFA|Adfd edBA|
Bdef g2fg|a2ag fdd2|BAGA Bdde|dBAB G4:|

